src/lib/packages/icons/src/assets/line/copy2right-square.svg

<svg width="24" height="24" viewBox="0 0 24 24" fill="none" xmlns="http://www.w3.org/2000/svg">
<path d="M17.625 21.75H6.375C3.715 21.75 2.25 20.285 2.25 17.625V6.375C2.25 3.715 3.715 2.25 6.375 2.25H17.625C20.285 2.25 21.75 3.715 21.75 6.375V17.625C21.75 20.285 20.285 21.75 17.625 21.75ZM6.375 3.75C4.535 3.75 3.75 4.535 3.75 6.375V17.625C3.75 19.465 4.535 20.25 6.375 20.25H17.625C19.465 20.25 20.25 19.465 20.25 17.625V6.375C20.25 4.535 19.465 3.75 17.625 3.75H6.375ZM15.6169 14.427C15.8519 14.087 15.767 13.619 15.427 13.384C15.086 13.147 14.6201 13.234 14.3831 13.574C13.8731 14.311 13.0339 14.751 12.1399 14.751C10.6229 14.751 9.38989 13.518 9.38989 12.001C9.38989 10.484 10.6229 9.25098 12.1399 9.25098C13.0349 9.25098 13.8731 9.69098 14.3831 10.428C14.6201 10.768 15.086 10.8559 15.427 10.6179C15.768 10.3819 15.8529 9.91495 15.6169 9.57495C14.8259 8.43295 13.5259 7.75195 12.1389 7.75195C9.79492 7.75195 7.88892 9.65895 7.88892 12.002C7.88892 14.345 9.79492 16.252 12.1389 16.252C13.5259 16.25 14.8259 15.568 15.6169 14.427Z" fill="currentColor"/>
</svg>

<svg xmlns="http://www.w3.org/2000/svg" width="24" height="24" fill="none"><path fill="currentColor" d="M17.625 21.75H6.375c-2.66 0-4.125-1.465-4.125-4.125V6.375c0-2.66 1.465-4.125 4.125-4.125h11.25c2.66 0 4.125 1.465 4.125 4.125v11.25c0 2.66-1.465 4.125-4.125 4.125Zm-11.25-18c-1.84 0-2.625.785-2.625 2.625v11.25c0 1.84.785 2.625 2.625 2.625h11.25c1.84 0 2.625-.785 2.625-2.625V6.375c0-1.84-.785-2.625-2.625-2.625H6.375Zm9.242 10.677a.75.75 0 0 0-1.234-.853 2.73 2.73 0 0 1-2.243 1.177 2.752 2.752 0 0 1-2.75-2.75 2.752 2.752 0 0 1 2.75-2.75c.895 0 1.733.44 2.243 1.177a.75.75 0 1 0 1.234-.853 4.232 4.232 0 0 0-3.478-1.823 4.255 4.255 0 0 0-4.25 4.25 4.255 4.255 0 0 0 4.25 4.25 4.241 4.241 0 0 0 3.478-1.825Z"/></svg>
